src/assets/svgs/folder.svg

<svg width="24" height="23" viewBox="0 0 24 23" fill="none" xmlns="http://www.w3.org/2000/svg">
<path fill-rule="evenodd" clip-rule="evenodd" d="M8.69861 0.25H6.44486C2.10148 0.25 0.083252 2.69737 0.083252 7.25702V15.743C0.083252 20.0906 2.84069 22.75 7.35048 22.75H16.1288C20.6299 22.75 23.3857 20.0891 23.3857 15.743L23.4166 10.3419C23.4166 5.78807 21.4456 3.55893 17.0344 3.55893H13.8442C13.3014 3.55788 12.7889 3.31047 12.4614 2.89053L11.4327 1.56947C10.7877 0.739134 9.77456 0.25 8.69861 0.25ZM6.44486 1.8829H8.69861C9.24226 1.8829 9.75419 2.13005 10.0804 2.54999L11.1101 3.87236C11.7568 4.70154 12.7681 5.18976 13.8425 5.19183L17.0344 5.19183C20.447 5.19183 21.7255 6.63767 21.7255 10.3374L21.6946 15.7385C21.6946 19.1873 19.6959 21.1171 16.1288 21.1171H7.35048C3.77423 21.1171 1.77439 19.1884 1.77439 15.743V7.25702C1.77439 3.52794 3.13097 1.8829 6.44486 1.8829ZM17.9829 14.3618C17.9829 13.9109 17.6043 13.5453 17.1373 13.5453H6.32136L6.20662 13.5528C5.7939 13.6068 5.47579 13.9484 5.47579 14.3618C5.47579 14.8127 5.85437 15.1782 6.32136 15.1782H17.1373L17.2521 15.1708C17.6648 15.1167 17.9829 14.7751 17.9829 14.3618Z" />
</svg>

<svg width="24" height="23" fill="none" xmlns="http://www.w3.org/2000/svg"><path clip-rule="evenodd" d="M8.699.25H6.445C2.1.25.083 2.697.083 7.257v8.486c0 4.348 2.758 7.007 7.267 7.007h8.779c4.5 0 7.257-2.66 7.257-7.007l.03-5.401c0-4.554-1.97-6.783-6.382-6.783h-3.19a1.758 1.758 0 0 1-1.383-.668l-1.028-1.322A3.46 3.46 0 0 0 8.699.25zM6.445 1.883h2.254c.543 0 1.055.247 1.381.667l1.03 1.322a3.472 3.472 0 0 0 2.732 1.32h3.192c3.413 0 4.692 1.446 4.692 5.145l-.031 5.402c0 3.448-2 5.378-5.566 5.378H7.35c-3.576 0-5.576-1.929-5.576-5.374V7.257c0-3.73 1.357-5.374 4.67-5.374zm11.538 12.479c0-.451-.379-.817-.846-.817H6.321l-.114.008a.827.827 0 0 0-.731.809c0 .45.378.816.845.816h10.816l.115-.007a.827.827 0 0 0 .73-.81z"/></svg>
